X:2
T:"Aus zweiter Hand" - schottisch/schottische/scottish
C:Quelle:aus Archivmaterial zusammengestellt
Z:abc transcription Simon Wascher
N:please mail errors to: simon.wascher@chello.at
M:2/4
L:1/16
K:G
GA|B2D2 D2GB|A2E2 E2AB|cBAG FEDC|E2D2 DFGA|
B2D2 D2GB|A2E2 E2AB|cBAG FEDF|G2B2G2:|
|:FE|D2EF G2A2|B2D2 D2B2|c2D2 D2c2|B2AG G2FE|
D2EF G2A2|B2D2 D2B2|c2F2 c2BA|G4G2:|
|:DD|D2G2 B2AG|F2E2E4|A2A2 F2EF|B2G2 D2DD|
D2G2 B2AG|F2E2E4|A2A2 F2EF|G2G2G2:|


